icons/ruby-24.svg

<svg xmlns="http://www.w3.org/2000/svg" width="24" height="24" viewBox="0 0 24 24"><path d="M5.873 3.26A.748.748 0 016.44 3h11.31c.223 0 .434.099.576.27l5 6a.75.75 0 01-.028.992l-10.75 11.5a.75.75 0 01-1.096 0l-10.75-11.5a.75.75 0 01-.02-1.003l5.19-6zm.91 1.24L2.258 9.73 12 20.153l9.75-10.43L17.399 4.5z"/></svg>

<svg xmlns="http://www.w3.org/2000/svg" width="24" height="24" viewBox="0 0 24 24">
  <defs/>
  <path d="M5.873,3.26 C6.015,3.095 6.222,3 6.44,3 L17.75,3 C17.973,3 18.184,3.099 18.326,3.27 L23.326,9.27 C23.568,9.56 23.556,9.986 23.298,10.262 L12.548,21.762 C12.406,21.914 12.208,22 12,22 C11.792,22 11.594,21.914 11.452,21.762 L0.702,10.262 C0.44,9.982 0.431,9.549 0.682,9.259 L5.872,3.259 Z M6.783,4.5 L2.258,9.73 L12,20.153 L21.75,9.723 L17.399,4.5 Z"/>
</svg>
